src/assets/images/social/linkedin.svg

<svg width="64" height="64" viewBox="0 0 64 64" fill="none" xmlns="http://www.w3.org/2000/svg"><path d="M32 0C14.3296.0.0 14.3296.0 32 0 49.6704 14.3296 64 32 64c17.6704.0 32-14.3296 32-32C64 14.3296 49.6704.0 32 0zM22.7012 48.375H14.9077V24.9282h7.7935V48.375zM18.8047 21.7266H18.7539C16.1387 21.7266 14.4473 19.9263 14.4473 17.6763 14.4473 15.3755 16.1904 13.625 18.8564 13.625 21.5225 13.625 23.1631 15.3755 23.2139 17.6763 23.2139 19.9263 21.5225 21.7266 18.8047 21.7266zM50.8027 48.375H43.0103V35.8315C43.0103 32.6792 41.8818 30.5293 39.062 30.5293 36.9092 30.5293 35.627 31.9795 35.0635 33.3794 34.8574 33.8804 34.8071 34.5806 34.8071 35.2812V48.375H27.0142c0 0 .10200000000000031-21.2471.0-23.4468H34.8071V28.248C35.8428 26.6504 37.6958 24.3779 41.8306 24.3779 46.958 24.3779 50.8027 27.729 50.8027 34.9307V48.375z" fill="#3375b0"/></svg>

<svg width="64" height="64" fill="none" xmlns="http://www.w3.org/2000/svg"><path d="M32 0C14.33 0 0 14.33 0 32s14.33 32 32 32 32-14.33 32-32S49.67 0 32 0zm-9.299 48.375h-7.793V24.928H22.7v23.447zm-3.896-26.648h-.051c-2.615 0-4.307-1.8-4.307-4.05 0-2.301 1.743-4.052 4.41-4.052 2.666 0 4.306 1.75 4.357 4.051 0 2.25-1.691 4.05-4.41 4.05zm31.998 26.648H43.01V35.831c0-3.152-1.128-5.302-3.948-5.302-2.153 0-3.435 1.45-3.998 2.85-.207.501-.257 1.202-.257 1.902v13.094h-7.793s.102-21.247 0-23.447h7.793v3.32c1.036-1.598 2.889-3.87 7.024-3.87 5.127 0 8.972 3.351 8.972 10.553v13.444z" fill="#3375b0"/></svg>
